src/assets/icons/groceries.svg

<svg width="228" height="175" viewBox="0 0 228 175" fill="none" xmlns="http://www.w3.org/2000/svg">
<circle cx="112" cy="89" r="86" fill="#F7F7F6"/>
<circle cx="176.902" cy="40.9019" r="29.6988" transform="rotate(-31.8665 176.902 40.9019)" fill="#F0C62F"/>
<circle cx="9.5" cy="108.5" r="9.5" fill="#4CAF50"/>
<mask id="path-4-inside-1_491_4378" fill="white">
<path d="M97.75 64C97.7496 60.3683 96.3327 56.8799 93.8005 54.2765C95.6947 53.5035 97.7738 53.302 99.7813 53.697C101.789 54.0919 103.637 55.066 105.097 56.499L107.547 54.0009C103.06 49.5931 96.1794 48.7334 90.7467 51.9003C88.6216 50.6652 86.2082 50.0124 83.7502 50.0078C81.2922 50.0032 78.8765 50.6469 76.7467 51.874C74.6171 53.1013 72.8488 54.8686 71.6204 56.9976C70.3919 59.1266 69.7468 61.542 69.75 64V71H62.75C62.2859 71 61.8408 71.1844 61.5126 71.5125C61.1844 71.8407 61 72.2859 61 72.75V132.25C61 132.714 61.1844 133.159 61.5126 133.487C61.8408 133.816 62.2859 134 62.75 134H99.5V130.5H78.5V74.5H83.75V81.5H87.25V74.5H99.5V71H97.75V64ZM71.206 120.779C71.0367 120.552 70.8169 120.368 70.5642 120.242C70.3114 120.115 70.0327 120.049 69.75 120.049C69.4673 120.049 69.1886 120.115 68.9358 120.242C68.6831 120.368 68.4633 120.552 68.294 120.779L64.5 126.475V78.5245L68.294 84.2155C68.4537 84.4554 68.6702 84.652 68.9242 84.788C69.1782 84.924 69.4619 84.9952 69.75 84.9952C70.0381 84.9952 70.3218 84.924 70.5758 84.788C70.8298 84.652 71.0463 84.4554 71.206 84.2155L75 78.5245V126.475L71.206 120.779ZM73.4808 130.5H66.0192L69.75 124.9L73.4808 130.5ZM69.75 80.1004L66.0192 74.5H73.4808L69.75 80.1004ZM73.25 71V64C73.248 62.279 73.6696 60.5839 74.4775 59.0643C75.2854 57.5447 76.4549 56.2472 77.8827 55.2864C79.3106 54.3255 80.9529 53.7308 82.6649 53.5547C84.3769 53.3786 86.106 53.6265 87.6995 54.2765C85.1673 56.8799 83.7504 60.3683 83.75 64V71H73.25ZM87.25 64C87.2509 62.5262 87.5632 61.0692 88.1663 59.7244C88.7695 58.3797 89.6499 57.1776 90.75 56.1967C91.8501 57.1776 92.7305 58.3797 93.3337 59.7244C93.9368 61.0692 94.2491 62.5262 94.25 64V71H87.25V64Z"/>
<path d="M115.075 52.5318C115.193 52.2882 115.253 52.0206 115.25 51.75V39.5H122.25V51.75C122.247 52.0206 122.307 52.2882 122.425 52.5318L132.925 73.5318L136.058 71.9682L125.75 51.3372V30.75C125.75 30.2859 125.566 29.8408 125.237 29.5126C124.909 29.1844 124.464 29 124 29H113.5C113.036 29 112.591 29.1844 112.263 29.5126C111.934 29.8408 111.75 30.2859 111.75 30.75V51.3372L101.434 71.9682C101.313 72.211 101.25 72.4787 101.25 72.75V132.25C101.25 132.714 101.434 133.159 101.763 133.487C102.091 133.816 102.536 134 103 134H115.25V130.5H104.75V73.1628L115.075 52.5318ZM122.25 32.5V36H115.25V32.5H122.25Z"/>
<path d="M162.253 96.3536L155.5 84.5363V78C155.5 77.5359 155.316 77.0908 154.987 76.7626C154.659 76.4344 154.214 76.25 153.75 76.25H125.75C125.286 76.25 124.841 76.4344 124.513 76.7626C124.184 77.0908 124 77.5359 124 78V84.536L117.231 96.375C117.078 96.6411 116.998 96.9431 117 97.25V132.25C117 132.714 117.184 133.159 117.513 133.487C117.841 133.816 118.286 134 118.75 134H160.75C161.214 134 161.659 133.816 161.987 133.487C162.316 133.159 162.5 132.714 162.5 132.25V97.25C162.501 96.9343 162.415 96.6243 162.253 96.3536ZM157.735 95.5H149.766L153.75 88.5282L157.735 95.5ZM127.5 79.75H152V83.25H127.5V79.75ZM126.765 86.75H150.74L145.735 95.5H121.76L126.765 86.75ZM145 130.5H120.5V99H145V130.5ZM159 130.5H148.5V99H159V130.5Z"/>
</mask>
<path d="M97.75 64C97.7496 60.3683 96.3327 56.8799 93.8005 54.2765C95.6947 53.5035 97.7738 53.302 99.7813 53.697C101.789 54.0919 103.637 55.066 105.097 56.499L107.547 54.0009C103.06 49.5931 96.1794 48.7334 90.7467 51.9003C88.6216 50.6652 86.2082 50.0124 83.7502 50.0078C81.2922 50.0032 78.8765 50.6469 76.7467 51.874C74.6171 53.1013 72.8488 54.8686 71.6204 56.9976C70.3919 59.1266 69.7468 61.542 69.75 64V71H62.75C62.2859 71 61.8408 71.1844 61.5126 71.5125C61.1844 71.8407 61 72.2859 61 72.75V132.25C61 132.714 61.1844 133.159 61.5126 133.487C61.8408 133.816 62.2859 134 62.75 134H99.5V130.5H78.5V74.5H83.75V81.5H87.25V74.5H99.5V71H97.75V64ZM71.206 120.779C71.0367 120.552 70.8169 120.368 70.5642 120.242C70.3114 120.115 70.0327 120.049 69.75 120.049C69.4673 120.049 69.1886 120.115 68.9358 120.242C68.6831 120.368 68.4633 120.552 68.294 120.779L64.5 126.475V78.5245L68.294 84.2155C68.4537 84.4554 68.6702 84.652 68.9242 84.788C69.1782 84.924 69.4619 84.9952 69.75 84.9952C70.0381 84.9952 70.3218 84.924 70.5758 84.788C70.8298 84.652 71.0463 84.4554 71.206 84.2155L75 78.5245V126.475L71.206 120.779ZM73.4808 130.5H66.0192L69.75 124.9L73.4808 130.5ZM69.75 80.1004L66.0192 74.5H73.4808L69.75 80.1004ZM73.25 71V64C73.248 62.279 73.6696 60.5839 74.4775 59.0643C75.2854 57.5447 76.4549 56.2472 77.8827 55.2864C79.3106 54.3255 80.9529 53.7308 82.6649 53.5547C84.3769 53.3786 86.106 53.6265 87.6995 54.2765C85.1673 56.8799 83.7504 60.3683 83.75 64V71H73.25ZM87.25 64C87.2509 62.5262 87.5632 61.0692 88.1663 59.7244C88.7695 58.3797 89.6499 57.1776 90.75 56.1967C91.8501 57.1776 92.7305 58.3797 93.3337 59.7244C93.9368 61.0692 94.2491 62.5262 94.25 64V71H87.25V64Z" fill="#949894"/>
<path d="M115.075 52.5318C115.193 52.2882 115.253 52.0206 115.25 51.75V39.5H122.25V51.75C122.247 52.0206 122.307 52.2882 122.425 52.5318L132.925 73.5318L136.058 71.9682L125.75 51.3372V30.75C125.75 30.2859 125.566 29.8408 125.237 29.5126C124.909 29.1844 124.464 29 124 29H113.5C113.036 29 112.591 29.1844 112.263 29.5126C111.934 29.8408 111.75 30.2859 111.75 30.75V51.3372L101.434 71.9682C101.313 72.211 101.25 72.4787 101.25 72.75V132.25C101.25 132.714 101.434 133.159 101.763 133.487C102.091 133.816 102.536 134 103 134H115.25V130.5H104.75V73.1628L115.075 52.5318ZM122.25 32.5V36H115.25V32.5H122.25Z" fill="#949894"/>
<path d="M162.253 96.3536L155.5 84.5363V78C155.5 77.5359 155.316 77.0908 154.987 76.7626C154.659 76.4344 154.214 76.25 153.75 76.25H125.75C125.286 76.25 124.841 76.4344 124.513 76.7626C124.184 77.0908 124 77.5359 124 78V84.536L117.231 96.375C117.078 96.6411 116.998 96.9431 117 97.25V132.25C117 132.714 117.184 133.159 117.513 133.487C117.841 133.816 118.286 134 118.75 134H160.75C161.214 134 161.659 133.816 161.987 133.487C162.316 133.159 162.5 132.714 162.5 132.25V97.25C162.501 96.9343 162.415 96.6243 162.253 96.3536ZM157.735 95.5H149.766L153.75 88.5282L157.735 95.5ZM127.5 79.75H152V83.25H127.5V79.75ZM126.765 86.75H150.74L145.735 95.5H121.76L126.765 86.75ZM145 130.5H120.5V99H145V130.5ZM159 130.5H148.5V99H159V130.5Z" fill="#949894"/>
<path d="M97.75 64C97.7496 60.3683 96.3327 56.8799 93.8005 54.2765C95.6947 53.5035 97.7738 53.302 99.7813 53.697C101.789 54.0919 103.637 55.066 105.097 56.499L107.547 54.0009C103.06 49.5931 96.1794 48.7334 90.7467 51.9003C88.6216 50.6652 86.2082 50.0124 83.7502 50.0078C81.2922 50.0032 78.8765 50.6469 76.7467 51.874C74.6171 53.1013 72.8488 54.8686 71.6204 56.9976C70.3919 59.1266 69.7468 61.542 69.75 64V71H62.75C62.2859 71 61.8408 71.1844 61.5126 71.5125C61.1844 71.8407 61 72.2859 61 72.75V132.25C61 132.714 61.1844 133.159 61.5126 133.487C61.8408 133.816 62.2859 134 62.75 134H99.5V130.5H78.5V74.5H83.75V81.5H87.25V74.5H99.5V71H97.75V64ZM71.206 120.779C71.0367 120.552 70.8169 120.368 70.5642 120.242C70.3114 120.115 70.0327 120.049 69.75 120.049C69.4673 120.049 69.1886 120.115 68.9358 120.242C68.6831 120.368 68.4633 120.552 68.294 120.779L64.5 126.475V78.5245L68.294 84.2155C68.4537 84.4554 68.6702 84.652 68.9242 84.788C69.1782 84.924 69.4619 84.9952 69.75 84.9952C70.0381 84.9952 70.3218 84.924 70.5758 84.788C70.8298 84.652 71.0463 84.4554 71.206 84.2155L75 78.5245V126.475L71.206 120.779ZM73.4808 130.5H66.0192L69.75 124.9L73.4808 130.5ZM69.75 80.1004L66.0192 74.5H73.4808L69.75 80.1004ZM73.25 71V64C73.248 62.279 73.6696 60.5839 74.4775 59.0643C75.2854 57.5447 76.4549 56.2472 77.8827 55.2864C79.3106 54.3255 80.9529 53.7308 82.6649 53.5547C84.3769 53.3786 86.106 53.6265 87.6995 54.2765C85.1673 56.8799 83.7504 60.3683 83.75 64V71H73.25ZM87.25 64C87.2509 62.5262 87.5632 61.0692 88.1663 59.7244C88.7695 58.3797 89.6499 57.1776 90.75 56.1967C91.8501 57.1776 92.7305 58.3797 93.3337 59.7244C93.9368 61.0692 94.2491 62.5262 94.25 64V71H87.25V64Z" stroke="#F7F7F6" mask="url(#path-4-inside-1_491_4378)"/>
<path d="M115.075 52.5318C115.193 52.2882 115.253 52.0206 115.25 51.75V39.5H122.25V51.75C122.247 52.0206 122.307 52.2882 122.425 52.5318L132.925 73.5318L136.058 71.9682L125.75 51.3372V30.75C125.75 30.2859 125.566 29.8408 125.237 29.5126C124.909 29.1844 124.464 29 124 29H113.5C113.036 29 112.591 29.1844 112.263 29.5126C111.934 29.8408 111.75 30.2859 111.75 30.75V51.3372L101.434 71.9682C101.313 72.211 101.25 72.4787 101.25 72.75V132.25C101.25 132.714 101.434 133.159 101.763 133.487C102.091 133.816 102.536 134 103 134H115.25V130.5H104.75V73.1628L115.075 52.5318ZM122.25 32.5V36H115.25V32.5H122.25Z" stroke="#F7F7F6" mask="url(#path-4-inside-1_491_4378)"/>
<path d="M162.253 96.3536L155.5 84.5363V78C155.5 77.5359 155.316 77.0908 154.987 76.7626C154.659 76.4344 154.214 76.25 153.75 76.25H125.75C125.286 76.25 124.841 76.4344 124.513 76.7626C124.184 77.0908 124 77.5359 124 78V84.536L117.231 96.375C117.078 96.6411 116.998 96.9431 117 97.25V132.25C117 132.714 117.184 133.159 117.513 133.487C117.841 133.816 118.286 134 118.75 134H160.75C161.214 134 161.659 133.816 161.987 133.487C162.316 133.159 162.5 132.714 162.5 132.25V97.25C162.501 96.9343 162.415 96.6243 162.253 96.3536ZM157.735 95.5H149.766L153.75 88.5282L157.735 95.5ZM127.5 79.75H152V83.25H127.5V79.75ZM126.765 86.75H150.74L145.735 95.5H121.76L126.765 86.75ZM145 130.5H120.5V99H145V130.5ZM159 130.5H148.5V99H159V130.5Z" stroke="#F7F7F6" mask="url(#path-4-inside-1_491_4378)"/>
</svg>

<svg viewBox="0 0 228 175" fill="none" xmlns="http://www.w3.org/2000/svg">
    <circle cx="112" cy="89" r="86" fill="#F7F7F6" />
    <circle cx="176.902" cy="40.902" r="29.699" transform="rotate(-31.866 176.902 40.902)" fill="#F0C62F" />
    <circle cx="9.5" cy="108.5" r="9.5" fill="#4CAF50" />
    <mask id="prefix__a" fill="#fff">
        <path
            d="M97.75 64c0-3.632-1.417-7.12-3.95-9.724a10.476 10.476 0 0111.297 2.223l2.45-2.498a13.949 13.949 0 00-16.8-2.1A13.976 13.976 0 0069.75 64v7h-7A1.75 1.75 0 0061 72.75v59.5a1.749 1.749 0 001.75 1.75H99.5v-3.5h-21v-56h5.25v7h3.5v-7H99.5V71h-1.75v-7zm-26.544 56.779a1.813 1.813 0 00-2.912 0l-3.794 5.696v-47.95l3.794 5.69a1.748 1.748 0 002.912 0L75 78.526v47.95l-3.794-5.696zm2.275 9.721h-7.462l3.731-5.6 3.73 5.6zM69.75 80.1l-3.73-5.6h7.46l-3.73 5.6zm3.5-9.1v-7a10.488 10.488 0 0114.45-9.724A13.948 13.948 0 0083.75 64v7h-10.5zm14-7a10.464 10.464 0 013.5-7.803A10.465 10.465 0 0194.25 64v7h-7v-7z" />
        <path
            d="M115.075 52.532c.118-.244.178-.511.175-.782V39.5h7v12.25c-.003.27.057.538.175.782l10.5 21 3.133-1.564-10.308-20.63V30.75A1.747 1.747 0 00124 29h-10.5a1.749 1.749 0 00-1.75 1.75v20.587l-10.316 20.631c-.121.243-.184.51-.184.782v59.5c0 .464.184.909.513 1.237.328.329.773.513 1.237.513h12.25v-3.5h-10.5V73.163l10.325-20.631zM122.25 32.5V36h-7v-3.5h7z" />
        <path
            d="M162.253 96.354L155.5 84.536V78a1.747 1.747 0 00-1.75-1.75h-28A1.749 1.749 0 00124 78v6.536l-6.769 11.839a1.733 1.733 0 00-.231.875v35c0 .464.184.909.513 1.237.328.329.773.513 1.237.513h42c.464 0 .909-.184 1.237-.513.329-.328.513-.773.513-1.237v-35a1.736 1.736 0 00-.247-.896zm-4.518-.854h-7.969l3.984-6.972 3.985 6.972zM127.5 79.75H152v3.5h-24.5v-3.5zm-.735 7h23.975l-5.005 8.75H121.76l5.005-8.75zM145 130.5h-24.5V99H145v31.5zm14 0h-10.5V99H159v31.5z" />
    </mask>
    <path
        d="M97.75 64c0-3.632-1.417-7.12-3.95-9.724a10.476 10.476 0 0111.297 2.223l2.45-2.498a13.949 13.949 0 00-16.8-2.1A13.976 13.976 0 0069.75 64v7h-7A1.75 1.75 0 0061 72.75v59.5a1.749 1.749 0 001.75 1.75H99.5v-3.5h-21v-56h5.25v7h3.5v-7H99.5V71h-1.75v-7zm-26.544 56.779a1.813 1.813 0 00-2.912 0l-3.794 5.696v-47.95l3.794 5.69a1.748 1.748 0 002.912 0L75 78.526v47.95l-3.794-5.696zm2.275 9.721h-7.462l3.731-5.6 3.73 5.6zM69.75 80.1l-3.73-5.6h7.46l-3.73 5.6zm3.5-9.1v-7a10.488 10.488 0 0114.45-9.724A13.948 13.948 0 0083.75 64v7h-10.5zm14-7a10.464 10.464 0 013.5-7.803A10.465 10.465 0 0194.25 64v7h-7v-7z"
        fill="#949894" />
    <path
        d="M115.075 52.532c.118-.244.178-.511.175-.782V39.5h7v12.25c-.003.27.057.538.175.782l10.5 21 3.133-1.564-10.308-20.63V30.75A1.747 1.747 0 00124 29h-10.5a1.749 1.749 0 00-1.75 1.75v20.587l-10.316 20.631c-.121.243-.184.51-.184.782v59.5c0 .464.184.909.513 1.237.328.329.773.513 1.237.513h12.25v-3.5h-10.5V73.163l10.325-20.631zM122.25 32.5V36h-7v-3.5h7z"
        fill="#949894" />
    <path
        d="M162.253 96.354L155.5 84.536V78a1.747 1.747 0 00-1.75-1.75h-28A1.749 1.749 0 00124 78v6.536l-6.769 11.839a1.733 1.733 0 00-.231.875v35c0 .464.184.909.513 1.237.328.329.773.513 1.237.513h42c.464 0 .909-.184 1.237-.513.329-.328.513-.773.513-1.237v-35a1.736 1.736 0 00-.247-.896zm-4.518-.854h-7.969l3.984-6.972 3.985 6.972zM127.5 79.75H152v3.5h-24.5v-3.5zm-.735 7h23.975l-5.005 8.75H121.76l5.005-8.75zM145 130.5h-24.5V99H145v31.5zm14 0h-10.5V99H159v31.5z"
        fill="#949894" />
    <path
        d="M97.75 64c0-3.632-1.417-7.12-3.95-9.724a10.476 10.476 0 0111.297 2.223l2.45-2.498a13.949 13.949 0 00-16.8-2.1A13.976 13.976 0 0069.75 64v7h-7A1.75 1.75 0 0061 72.75v59.5a1.749 1.749 0 001.75 1.75H99.5v-3.5h-21v-56h5.25v7h3.5v-7H99.5V71h-1.75v-7zm-26.544 56.779a1.813 1.813 0 00-2.912 0l-3.794 5.696v-47.95l3.794 5.69a1.748 1.748 0 002.912 0L75 78.526v47.95l-3.794-5.696zm2.275 9.721h-7.462l3.731-5.6 3.73 5.6zM69.75 80.1l-3.73-5.6h7.46l-3.73 5.6zm3.5-9.1v-7a10.488 10.488 0 0114.45-9.724A13.948 13.948 0 0083.75 64v7h-10.5zm14-7a10.464 10.464 0 013.5-7.803A10.465 10.465 0 0194.25 64v7h-7v-7z"
        stroke="#F7F7F6" mask="url(#prefix__a)" />
    <path
        d="M115.075 52.532c.118-.244.178-.511.175-.782V39.5h7v12.25c-.003.27.057.538.175.782l10.5 21 3.133-1.564-10.308-20.63V30.75A1.747 1.747 0 00124 29h-10.5a1.749 1.749 0 00-1.75 1.75v20.587l-10.316 20.631c-.121.243-.184.51-.184.782v59.5c0 .464.184.909.513 1.237.328.329.773.513 1.237.513h12.25v-3.5h-10.5V73.163l10.325-20.631zM122.25 32.5V36h-7v-3.5h7z"
        stroke="#F7F7F6" mask="url(#prefix__a)" />
    <path
        d="M162.253 96.354L155.5 84.536V78a1.747 1.747 0 00-1.75-1.75h-28A1.749 1.749 0 00124 78v6.536l-6.769 11.839a1.733 1.733 0 00-.231.875v35c0 .464.184.909.513 1.237.328.329.773.513 1.237.513h42c.464 0 .909-.184 1.237-.513.329-.328.513-.773.513-1.237v-35a1.736 1.736 0 00-.247-.896zm-4.518-.854h-7.969l3.984-6.972 3.985 6.972zM127.5 79.75H152v3.5h-24.5v-3.5zm-.735 7h23.975l-5.005 8.75H121.76l5.005-8.75zM145 130.5h-24.5V99H145v31.5zm14 0h-10.5V99H159v31.5z"
        stroke="#F7F7F6" mask="url(#prefix__a)" />
</svg>
